teams/dark/135.svg

<svg xmlns="http://www.w3.org/2000/svg" viewBox="0 0 300 300"><title>San Diego Padres cap on dark logo</title><path fill="#ffc425" d="M202.63 84.46c18.12-.01 32.8 14.68 32.8 32.79v114.04c0 18.11-14.68 32.79-32.79 32.79h-92.31s5.52-7.93 5.52-23.01v-21.12H90.51c-13.89 0-25.14-11.26-25.14-25.14v-25.65h25.14s-4.04 3.47-4.04 18.51v4.52c0 4.68 3.79 8.48 8.48 8.48h20.9v-53.2h23.94v53.2h18.41c4.66 0 8.48-3.81 8.48-8.48v-45.27c0-4.69-3.8-8.49-8.49-8.49H89.03c-13.88 0-25.14-11.26-25.14-25.14V61.04c0-13.88 11.26-25.14 25.14-25.14h74.96c13.88 0 25.14 11.26 25.14 25.14v10.88h-25.14s2.45-2.8 3.09-7.47c.67-4.82-2.54-9.66-7.41-9.73H96.32c-4.67 0-8.49 3.82-8.49 8.49v47.46c0 4.69 3.8 8.49 8.49 8.49h19.54v-11.67c0-15.08-5.52-23.02-5.52-23.02h92.3Zm8.86 147.3V116.8c0-7.15-5.79-12.95-12.94-12.95h-58.76v15.31h25.69c13.88 0 25.14 11.26 25.14 25.14v50.52c0 13.89-11.26 25.14-25.14 25.14h-25.69v24.75h58.76c7.15 0 12.95-5.8 12.95-12.95Zm26.47 23.94v1.52h-1.92v6.87h-1.86v-6.87h-2.04v-1.52Zm6.3 0h1.86v8.39h-1.86v-4.66l-1.67 4.15h-.32l-1.67-4.15v4.66h-1.86v-8.39h1.86l1.83 4.64Z"/></svg>

<svg width="300" height="300" viewBox="0 0 300 300" fill="none" xmlns="http://www.w3.org/2000/svg">
<path d="M202.63 84.46C220.75 84.45 235.43 99.14 235.43 117.25V231.29C235.43 249.4 220.75 264.08 202.64 264.08H110.33C110.33 264.08 115.85 256.15 115.85 241.07V219.95H90.51C76.62 219.95 65.37 208.69 65.37 194.81V169.16H90.51C90.51 169.16 86.47 172.63 86.47 187.67V192.19C86.47 196.87 90.26 200.67 94.95 200.67H115.85V147.47H139.79V200.67H158.2C162.86 200.67 166.68 196.86 166.68 192.19V146.92C166.68 142.23 162.88 138.43 158.19 138.43H89.03C75.15 138.43 63.89 127.17 63.89 113.29V61.04C63.89 47.16 75.15 35.9 89.03 35.9H163.99C177.87 35.9 189.13 47.16 189.13 61.04V71.92H163.99C163.99 71.92 166.44 69.12 167.08 64.45C167.75 59.63 164.54 54.79 159.67 54.72H96.32C91.65 54.72 87.83 58.54 87.83 63.21V110.67C87.83 115.36 91.63 119.16 96.32 119.16H115.86V107.49C115.86 92.41 110.34 84.47 110.34 84.47H202.64L202.63 84.46ZM211.49 231.76V116.8C211.49 109.65 205.7 103.85 198.55 103.85H139.79V119.16H165.48C179.36 119.16 190.62 130.42 190.62 144.3V194.82C190.62 208.71 179.36 219.96 165.48 219.96H139.79V244.71H198.55C205.7 244.71 211.5 238.91 211.5 231.76H211.49Z" fill="#FFC425"/>
</svg>
